!!!OTL: 149. Phyllis und die Mutter.
!!!COM: Volksweise
!!!ARE: Europa, Mitteleuropa, Deutschland
!!!SCT: B0149
!!!TXL: @@DE
!!!YEM: Copyright 1995, estate of Helmut Schaffrath.
**kern	**text
*ICvox	*
*Ivox	*
*M6/8	*
*clefG2	*
*k[f#c#g#d#]	*
*E:	*
=1	=1
!LO:TX:a:t=Munter.	!
{4e	Jh-
8e	-ren
4g#	Schä-
8g#	-fer
=2	=2
4b/	ʒu
8b/	er-
4g#	-war-
8e}	-ten,
=3	=3
{8.f#L	tral-
16f#	-le-
8f#J	-ra-
4a	-ri,
8d#	ti-
=4	=4
8.f#L	-ral-
16e	-le-
8eJ	-la-
4e	-la!
8r}	.
=5	=5
{4e	Schlich
8e	ſich
4g#	Phyl-
8g#	-lis
=6	=6
4b/	in
8b/	den
4g#	Gar-
8e}	-ten
=7	=7
{8.f#L	tral-
16f#	-le-
8f#J	-ra-
4a	-ri,
8d#	ti-
=8	=8
8.f#L	-ral-
16e	-le-
8eJ	-la-
4e	-la!
8r}	.
=9	=9
{4cc#	Jn
8cc#	dem
8eeL	dun-
8dd#J	.
8cc#	-keln
=10	=10
8cc#L	Myr-
8bJ	.
8b	-then-
4.b}	-hain,
=11	=11
{4a	ſchlief
8a	das
8cc#L	lo-
8bJ	.
8a	-ſe
=12	=12
8aL	Mäd-
8g#J	-chen
8g#	.
4g#	eiu.
8r}	.
=13	=13
{8.f#L	Tralle-
16f#	.
8f#J	-ra-
4a	-ri,
8f#	ti-
=14	=14
8.eL	-ral-
16e	-le-
8g#J	-ra-
4b}	-la,
{8g#	ti-
=15	=15
8.f#L	-ral-
16f#	-le-
8f#J	-ra-
4a	-ri,
8d#	ti-
=16	=16
8.eL	-ral-
16e	-le-
8eJ	-ra-
4e	-la!
8r}	.
==	==
!!!AGN: Ballade, Romanze
!!!GTL: Balladen und Romanzen
!!!ONB: ESAC (Essen Associative Code) Database: BOEHME
!!!AMT: compound duple
!!!AIN: vox
!!!EED: Helmut Schaffrath
!!!EEV: 1.0
!!@@COMMENT:"Verf. unbekannt, das Lied iſt um 1771 entſtanden und ſteht im "Almanach der deutſchen
!!Muſen. 1772. Leipʒig S. 23, woſelbſt im Regiſter als Quelle "Wochenblatt ohne Titel" angegeben
!!iſt. - Melodien daʒu giebts 3: die Volksweiſe hier und bei Erk J. 3, 18. Eine andere bei Fink
!!und in Härtel's Lexikon; eine dritte bei Kretʒſchmer J, Nr. 170. Das Lied hat ſich bis auf die
!!Neuʒeit erhalten und die im Jahr 1894 von der Berliner Hofoper ins Privatleben ʒurücktretende
!!Fräulein Eliſabeth Leiſinger mußte es in Concerten ſtets da capo ſingen. Der Text hat mancher-
!!lei Varianten erfahren [...]."
!!@@END:
!!!URL-scan: https://archive.org/details/BoehmeVtLieder1895/page/n149/mode/2up
!!!ENC: Anna Maria Matuszewska
!!!EEV: 2024/19/06
*-	*-
